X:150
T:Mermaid - Hard
%%VWML:SBG-1-2-657-0
F:http://www.vwml.org/record/SBG/1/2/657
Z:Original Sibelius transcriptions by M. & S. Graebe
M:4/4
I:linebreak $
K:Eb
V:1 treble nm="P1"
V:1
 D2 | B2 c2 B2 G2 | BA F2 E2 B2 | c2 d2 e2 dc | B6 cd | e2 d2 cB GE |$ B2 G2 B2 cB | G2 B2 BA FD | %8
 E>FG>A B2 e>d | cB GB BA FD | E6 |$"^chorus" EG | B2 c2 BA F2 | E6 B B | c2 d2 e2 dc | B6 B | %16
 c>d e>f e>d c>B |$ A>G A>B c2 e>d | B2 GB BAFD | E>FG>A B>ed>c | B2 GB B>AF>D | E6 x2 | %22

